X:1
T:Tom Dewey's Victory Song
M:4/4
L:1/8
K:C
 GA B| c2 G4 d2| c3 B2 z2 G| A_A =A c2 z2 A| G4 z2 z G| A_A =A c2 z2 A|\
 GA B c2 z2 _e| ed c A2 B c2| ed ^c d2 GA B| c2 G4 d2| c3 B2 z G^G|\
 A_A A c2 z2 A| G/2G/2 ^GA B c2 z c| c B2 _B=B c2 d| c2- G2- c2||
